assets/images/payments/cash.svg

<svg viewBox="0 0 64 64" xmlns="http://www.w3.org/2000/svg"><path d="m57 17h-50a1 1 0 0 0 -1 1v28a1 1 0 0 0 1 1h50a1 1 0 0 0 1-1v-28a1 1 0 0 0 -1-1zm-1 28h-48v-26h48zm-46-1h44a1 1 0 0 0 1-1v-22a1 1 0 0 0 -1-1h-44a1 1 0 0 0 -1 1v22a1 1 0 0 0 1 1zm43-2h-2.858a3.995 3.995 0 0 1 2.858-2.858zm0-20v2.858a3.995 3.995 0 0 1 -2.858-2.858zm-42 0h2.858a3.995 3.995 0 0 1 -2.858 2.858zm0 4.91a6.006 6.006 0 0 0 4.91-4.91h32.18a6.008 6.008 0 0 0 4.91 4.91v10.18a6.008 6.008 0 0 0 -4.91 4.91h-32.18a6.006 6.006 0 0 0 -4.91-4.91zm0 12.232a3.995 3.995 0 0 1 2.858 2.858h-2.858zm18-4.142a1 1 0 0 0 -2 0c0 2.224 1.479 3.646 4 3.938v1.062a1 1 0 1 0 2 0v-1.068c2.428-.321 4-1.817 4-3.932 0-2.457-2.059-3.257-4-3.776v-4.156c1.999.298 2 1.5 2 1.933a1 1 0 1 0 2 0c0-2.224-1.479-3.646-4-3.938v-1.063a1 1 0 0 0 -2 0v1.062c-2.521.292-4 1.714-4 3.938 0 2.457 2.059 3.257 4 3.776v4.156c-1.999-.297-2-1.499-2-1.932zm4-1.691c1.347.407 2 .827 2 1.691 0 1.281-1.091 1.739-2 1.904zm-4-4.309c0-.432.001-1.635 2-1.933v3.624c-1.347-.407-2-.827-2-1.691z" fill="#2bc70c"/></svg>

<svg viewBox="0 0 64 64" xml:space="preserve" xmlns="http://www.w3.org/2000/svg"><path d="M57 17H7a1 1 0 0 0-1 1v28a1 1 0 0 0 1 1h50a1 1 0 0 0 1-1V18a1 1 0 0 0-1-1zm-1 28H8V19h48v26zm-46-1h44a1 1 0 0 0 1-1V21a1 1 0 0 0-1-1H10a1 1 0 0 0-1 1v22a1 1 0 0 0 1 1zm43-2h-2.858A3.995 3.995 0 0 1 53 39.142V42zm0-20v2.858A3.995 3.995 0 0 1 50.142 22H53zm-42 0h2.858A3.995 3.995 0 0 1 11 24.858V22zm0 4.91A6.006 6.006 0 0 0 15.91 22h32.18A6.008 6.008 0 0 0 53 26.91v10.18A6.008 6.008 0 0 0 48.09 42H15.91A6.006 6.006 0 0 0 11 37.09V26.91zm0 12.232A3.995 3.995 0 0 1 13.858 42H11v-2.858zM29 35a1 1 0 0 0-2 0c0 2.224 1.479 3.646 4 3.938V40a1 1 0 1 0 2 0v-1.068c2.428-.321 4-1.817 4-3.932 0-2.457-2.059-3.257-4-3.776v-4.156c1.999.298 2 1.5 2 1.933a1 1 0 1 0 2 0c0-2.224-1.479-3.646-4-3.938V24a1 1 0 0 0-2 0v1.062c-2.521.292-4 1.714-4 3.938 0 2.457 2.059 3.257 4 3.776v4.156c-1.999-.297-2-1.499-2-1.932zm4-1.691c1.347.407 2 .827 2 1.691 0 1.281-1.091 1.739-2 1.904v-3.595zM29 29c0-.432.001-1.635 2-1.933v3.624c-1.347-.407-2-.827-2-1.691z" fill="#2bc70c" class="fill-000000"></path></svg>
